dist/svg/u1F3C5.svg

<?xml version="1.0" encoding="UTF-8"?><svg id="a" xmlns="http://www.w3.org/2000/svg" viewBox="0 0 40 40"><g><path d="M17.476,19.783h7.434c.38,0,.727-.216,.896-.556l7.821-15.787c.329-.665-.154-1.444-.896-1.444h-7.434c-.38,0-.727,.216-.896,.556l-7.821,15.787c-.329,.665,.154,1.444,.896,1.444Z" fill="#d12030"/><path d="M22.524,19.783h-7.434c-.38,0-.727-.216-.896-.556L6.373,3.439c-.329-.665,.154-1.444,.896-1.444h7.434c.38,0,.727,.216,.896,.556l7.821,15.787c.329,.665-.154,1.444-.896,1.444Z" fill="#ef4452"/><circle cx="20" cy="24.505" r="13.5" fill="#ffcd00"/><path d="M20.805,17.215l1.624,3.291c.131,.265,.383,.448,.676,.491l3.631,.528c.736,.107,1.03,1.012,.497,1.531l-2.628,2.561c-.212,.206-.308,.503-.258,.794l.62,3.617c.126,.733-.644,1.292-1.302,.946l-3.248-1.708c-.261-.137-.574-.137-.835,0l-3.248,1.708c-.658,.346-1.428-.213-1.302-.946l.62-3.617c.05-.291-.047-.588-.258-.794l-2.628-2.561c-.533-.519-.239-1.424,.497-1.531l3.631-.528c.292-.042,.545-.226,.676-.491l1.624-3.291c.329-.667,1.28-.667,1.61,0Z" fill="#fa0"/></g><rect width="40" height="40" fill="none"/></svg>

<svg id="Layer_1" data-name="Layer 1" xmlns="http://www.w3.org/2000/svg" viewBox="0 0 40 40"><defs><style>.cls-1{fill:#d12030;}.cls-2{fill:#ef4452;}.cls-3{fill:#ffcd00;}.cls-4{fill:#fa0;}.cls-5{fill:none;}</style></defs><path class="cls-1" d="M17.476,19.783h7.435a1,1,0,0,0,.9-.556l7.82-15.788A1,1,0,0,0,32.731,2H25.3a1,1,0,0,0-.9.556L16.58,18.339A1,1,0,0,0,17.476,19.783Z"/><path class="cls-2" d="M22.524,19.783H15.089a1,1,0,0,1-.9-.556L6.373,3.439A1,1,0,0,1,7.269,2H14.7a1,1,0,0,1,.9.556L23.42,18.339A1,1,0,0,1,22.524,19.783Z"/><circle class="cls-3" cx="20" cy="24.505" r="13.5"/><path class="cls-4" d="M20.805,17.215l1.624,3.291a.9.9,0,0,0,.676.491l3.631.528a.9.9,0,0,1,.5,1.531l-2.627,2.561a.9.9,0,0,0-.258.794l.62,3.617a.9.9,0,0,1-1.3.946l-3.248-1.707a.9.9,0,0,0-.836,0l-3.248,1.707a.9.9,0,0,1-1.3-.946l.62-3.617a.9.9,0,0,0-.258-.794l-2.627-2.561a.9.9,0,0,1,.5-1.531L16.9,21a.9.9,0,0,0,.676-.491L19.2,17.215A.9.9,0,0,1,20.805,17.215Z"/><rect class="cls-5" width="40" height="40"/></svg>
